public/svg/white/utk.svg

<svg height="32" viewBox="0 0 32 32" width="32" xmlns="http://www.w3.org/2000/svg"><path d="m16 32c-8.836556 0-16-7.163444-16-16s7.163444-16 16-16 16 7.163444 16 16-7.163444 16-16 16zm-1.6468236-9.7020539h3.2936472v-13.27023019h3.8531764v-3.02771591h-11v3.02771591h3.8531764zm-.8869392 3.7020539h5.1041759c1.9876722 0 2.9295869-.9564464 2.9295869-2.9782232v-13.12546401h-2.8929365v12.99183371c0 .3192279-.1050644.4256372-.419036.4256372h-4.3394047c-.3139715 0-.4190359-.1064093-.4190359-.4256372v-12.99183371h-2.8929365v13.12546401c0 2.0217768.940693 2.9782232 2.9295868 2.9782232z" fill="#fff" fill-rule="evenodd"/></svg>

<svg height="32" viewBox="0 0 32 32" width="32" xmlns="http://www.w3.org/2000/svg"><path d="M16 32C7.163 32 0 24.837 0 16S7.163 0 16 0s16 7.163 16 16-7.163 16-16 16zm-1.647-9.702h3.294V9.028H21.5V6h-11v3.028h3.853zM13.466 26h5.104c1.988 0 2.93-.956 2.93-2.978V9.896h-2.893v12.992c0 .32-.105.426-.419.426h-4.34c-.313 0-.418-.107-.418-.426V9.896h-2.893v13.126c0 2.022.94 2.978 2.93 2.978z" fill="#fff" fill-rule="evenodd"/></svg>
